X:199
T:Keep It Up
A:Cape Breton
S:Sandy MacIntyre
M:4/4
L:1/8
K:EDor
c|: dEBE dEBc | dEBE FDDc| dEBE GBeB |1 cAdA FDD c:|2 cAdA FDD f||
gebe geef | gebe fddf | gebe gefd | cAdA FDDf |
gebe geef | gebe fddf | ebgb fbeg | fcdA FDD c |>|
